source/img/logo-small.svg

<svg width="34" height="38" viewBox="0 0 34 38" fill="none" xmlns="http://www.w3.org/2000/svg">
<path d="M6.07 20.7216V18.4616C12.7536 17.5439 19.4937 17.0995 26.24 17.1316C26.24 17.7316 26.24 18.3416 26.18 18.9516C28.0976 18.1007 30.1128 17.4894 32.18 17.1316C30.8625 13.7236 28.4618 10.8429 25.3471 8.93251C22.2325 7.02216 18.5764 6.18804 14.9414 6.55848C11.3064 6.92891 7.89379 8.48337 5.22852 10.9827C2.56325 13.4821 0.792971 16.7879 0.190002 20.3916L6.07 20.7216Z" fill="#FDC305"/>
<path d="M27.24 24.2316C26.08 25.5116 25.85 25.4316 25.85 27.6816C25.85 28.5916 25.85 32.5816 25.85 36.8616C28.1425 35.3476 30.0245 33.2895 31.328 30.8711C32.6315 28.4526 33.3158 25.749 33.32 23.0016C33.3068 21.9608 33.1997 20.9232 33 19.9016C30.9282 21.1311 28.9967 22.5831 27.24 24.2316Z" fill="#FDC305"/>
<path d="M6.36 25.7216C6.36 25.7216 2.57 24.2816 1.17 23.8916C0.787067 23.7709 0.396097 23.6774 0 23.6116C0.108395 26.4976 0.965588 29.3058 2.48739 31.7603C4.00919 34.2148 6.14326 36.2313 8.68 37.6116L6.36 25.7216Z" fill="#FDC305"/>
<path d="M26.29 17.1217C26.3307 11.6003 25.862 6.08694 24.89 0.651652C24.89 0.651652 24.75 -0.638348 24 0.411652C23.4109 1.65979 23.0067 2.98704 22.8 4.35165C18.5418 4.07742 14.2675 4.19122 10.03 4.69165C9.24 2.00165 7.85 0.751652 7.18 1.00165C6.51 1.25165 6.46 4.31165 6.46 4.31165L6.13 18.4117C12.8113 17.5077 19.548 17.0766 26.29 17.1217V17.1217Z" fill="#F06351"/>
<path d="M12.41 14.0016C12.41 13.9116 13.41 14.6816 13.82 14.9216C14.23 15.1616 14.43 15.3416 14.43 15.5116C14.43 15.6816 14.16 15.8516 13.8 15.8516C13.44 15.8516 12.89 15.7316 12.8 15.5816H13.74H14.03C13.4207 15.131 12.8757 14.5995 12.41 14.0016V14.0016Z" fill="black"/>
<path d="M19.89 14.1117L18.8 15.4417C18.8 15.5017 18.63 15.7917 18.98 15.7417C19.3942 15.6799 19.8023 15.5829 20.2 15.4517C20.31 15.4517 20.27 15.2617 20.09 15.2817C19.91 15.3017 19.4 15.3317 19.09 15.3917L19.93 14.1317C19.93 14.1317 20 14.0017 19.89 14.1117Z" fill="black"/>
<path d="M16.75 20.2016C17.2135 19.9974 17.5967 19.6459 17.84 19.2016C18.12 18.5516 17.84 18.2916 17.4 18.2016C16.7979 18.0918 16.1765 18.2132 15.66 18.5416C15.27 18.9016 15.32 19.2616 15.61 19.5416C15.9613 19.8079 16.3442 20.0295 16.75 20.2016V20.2016Z" fill="black"/>
<path d="M16.35 21.4517C16.2379 21.6802 16.0816 21.8841 15.89 22.0517C15.6052 22.2808 15.2551 22.4138 14.89 22.4317C14.3638 22.4736 13.8406 22.3206 13.42 22.0017C13.2222 21.8824 13.0436 21.7341 12.89 21.5617C12.7895 21.4508 12.6669 21.3622 12.53 21.3017C12.53 21.3017 13.28 25.4017 15.1 26.0517C16.92 26.7017 17.24 25.3017 17.3 24.9217C17.3601 23.7868 17.0742 22.6604 16.48 21.6917C16.46 21.3817 16.45 21.5817 16.35 21.4517Z" fill="#F06351"/>
<path d="M14.71 22.5916C14.2453 22.5264 13.7989 22.3667 13.3982 22.1225C12.9975 21.8783 12.651 21.5547 12.38 21.1716C12.3667 21.1586 12.3561 21.1431 12.3489 21.1259C12.3417 21.1087 12.338 21.0903 12.338 21.0716C12.338 21.053 12.3417 21.0346 12.3489 21.0174C12.3561 21.0002 12.3667 20.9847 12.38 20.9716C12.393 20.9583 12.4086 20.9478 12.4258 20.9406C12.4429 20.9333 12.4614 20.9296 12.48 20.9296C12.4986 20.9296 12.5171 20.9333 12.5342 20.9406C12.5514 20.9478 12.567 20.9583 12.58 20.9716C13.0848 21.6658 13.843 22.133 14.69 22.2716V22.2716C15.0217 22.2467 15.3426 22.1429 15.6261 21.969C15.9096 21.7951 16.1475 21.556 16.32 21.2716L16.46 21.0816L16.56 21.2916C16.56 21.2916 16.93 22.0516 17.56 22.0916C18.19 22.1316 18.61 21.6816 19.17 20.8116C19.183 20.7983 19.1986 20.7878 19.2158 20.7806C19.2329 20.7733 19.2514 20.7696 19.27 20.7696C19.2886 20.7696 19.3071 20.7733 19.3242 20.7806C19.3414 20.7878 19.357 20.7983 19.37 20.8116C19.4023 20.8323 19.4255 20.8645 19.4348 20.9017C19.4441 20.9389 19.4388 20.9782 19.42 21.0116C18.78 22.0116 18.15 22.4516 17.54 22.4116C17.308 22.3779 17.0867 22.292 16.8927 22.1604C16.6987 22.0287 16.5371 21.8548 16.42 21.6516C16.2233 21.9261 15.9676 22.153 15.6717 22.3157C15.3758 22.4784 15.0472 22.5727 14.71 22.5916V22.5916Z" fill="black"/>
<path d="M26.24 18.9216C24.4445 20.5453 22.7512 22.2786 21.17 24.1116C19.5986 25.9378 17.8238 27.5784 15.88 29.0016C15.66 28.4716 14.26 27.4916 14.26 27.4916C14.26 27.4916 11.13 25.3516 9.08 23.6716C7.97414 22.739 6.9287 21.737 5.95 20.6716L3.95 20.5616C6.84017 24.7672 11.0702 27.8692 15.95 29.3616C16.81 29.2216 19.22 27.5016 21.02 26.1016C23.1389 24.2835 25.124 22.3151 26.96 20.2116C27.4625 19.6227 27.8493 18.9441 28.1 18.2116C27 18.6016 26.24 18.9216 26.24 18.9216Z" fill="#F06351"/>
</svg>

<svg xmlns="http://www.w3.org/2000/svg" width="34" height="38" fill="none" viewBox="0 0 34 38">
  <path fill="#FDC305" d="M6.07 20.72v-2.26c6.68-.92 13.42-1.36 20.17-1.33 0 .6 0 1.21-.06 1.82a25.53 25.53 0 016-1.82A16.67 16.67 0 00.19 20.4l5.88.33zM27.24 24.23c-1.16 1.28-1.39 1.2-1.39 3.45v9.18A16.64 16.64 0 0033.32 23a17.3 17.3 0 00-.32-3.1c-2.07 1.23-4 2.68-5.76 4.33zM6.36 25.72s-3.79-1.44-5.19-1.83A8.56 8.56 0 000 23.61a16.65 16.65 0 008.68 14L6.36 25.72z"/>
  <path fill="#F06351" d="M26.29 17.12A89.8 89.8 0 0024.89.65S24.75-.64 24 .41c-.59 1.25-1 2.58-1.2 3.94a70.34 70.34 0 00-12.77.34C9.24 2 7.85.75 7.18 1c-.67.25-.72 3.31-.72 3.31l-.33 14.1c6.68-.9 13.42-1.33 20.16-1.29z"/>
  <path fill="black" d="M12.41 14c0-.09 1 .68 1.41.92.41.24.61.42.61.6 0 .16-.27.33-.63.33s-.91-.12-1-.27h1.23A8.34 8.34 0 0112.41 14zM19.89 14.11l-1.09 1.33c0 .06-.17.35.18.3.41-.06.82-.16 1.22-.29.11 0 .07-.19-.11-.17-.18.02-.69.05-1 .11l.84-1.26s.07-.13-.04-.02zM16.75 20.2c.46-.2.85-.55 1.09-1 .28-.65 0-.9-.44-1-.6-.1-1.22.01-1.74.34-.39.36-.34.72-.05 1 .35.27.73.49 1.14.66z"/>
  <path fill="#F06351" d="M16.35 21.45c-.11.23-.27.43-.46.6-.28.23-.63.36-1 .38a2.15 2.15 0 01-1.47-.43 2.3 2.3 0 01-.53-.44c-.1-.1-.22-.2-.36-.26 0 0 .75 4.1 2.57 4.75 1.82.65 2.14-.75 2.2-1.13a5.61 5.61 0 00-.82-3.23c-.02-.3-.03-.1-.13-.24z"/>
  <path fill="black" d="M14.71 22.6a3.44 3.44 0 01-2.36-1.47.14.14 0 01.03-.16.14.14 0 01.15-.03c.02 0 .04.02.05.03.5.7 1.26 1.16 2.11 1.3a2.09 2.09 0 001.63-1l.14-.19.1.21s.37.76 1 .8c.63.04 1.05-.4 1.61-1.28a.14.14 0 01.15-.03c.02 0 .04.02.05.03a.15.15 0 01.05.2c-.64 1-1.27 1.44-1.88 1.4a1.55 1.55 0 01-1.12-.76 2.26 2.26 0 01-1.71.94z"/>
  <path fill="#F06351" d="M26.24 18.92a58.63 58.63 0 00-5.07 5.2A31.63 31.63 0 0115.88 29c-.22-.53-1.62-1.5-1.62-1.5s-3.13-2.15-5.18-3.83a34.11 34.11 0 01-3.13-3l-2-.1c2.89 4.2 7.12 7.3 12 8.8.86-.15 3.27-1.87 5.07-3.27a58.12 58.12 0 005.94-5.89c.5-.59.89-1.27 1.14-2-1.1.4-1.86.71-1.86.71z"/>
</svg>
